X:1
T:[ID 1-33a]
T:[ID 1-33a]
T:Bezeichnung standardisiert: Menuet van de graaf van Saksen; Men\"uet In anderer Quelle: Menuet van de graaf van Saksen (Anm. S. Wascher);  163 - Hs. Bolhuis 1738 (Anm. S. Wascher);
T:Urheber unbekannt Erstbeleg: 1738 (Datum in der schriftlichen Quelle) Datum in der hier transkribierten schriftlichen Quelle: vermutlich vor 1767
C:Urheber unbekannt
C:Erstbeleg: 1738 (Datum in der schriftlichen Quelle)
C:Datum in der hier transkribierten schriftlichen Quelle: vermutlich vor 1767
L:1/8
M:3/4
K:G
V:1 treble 
V:1
 G4 Bd | c2 Ac B2 | g2 d2 d2 | c2 Ac B2 | g2 d2 d2 | edcBAG | AB c2"^h*" A2 | A6 :: d4 fa | %9
 g2"^e*" dg f2 | a2 c2 c2 | Tc4 B2 | d2 gdbd | c2 Ac B2 | d2 gdbd | c2 Ac B2 | AcBAGF | G6 :| %18

